Breeze Round Light/actions/22/document-print-direct.svg

<svg xmlns="http://www.w3.org/2000/svg" viewBox="0 0 22 22">
  <defs id="defs3051">
<style type="text/css" id="current-color-scheme">.ColorScheme-Text {color:#fcfcfc;}</style>
  </defs>
 <path 
    style="fill:currentColor;fill-opacity:1;stroke:none" 
	d="m 5,3 v 1 4 c 0,0 -2,0 -2,2 0,2 0,2 0,4 0,2 2,2 2,2 h 2 v 2 1 h 8 v -3 h 1 V 13 H 15 6 v 2 H 5 C 5,15 4,15 4,14 4,13 4,11 4,10 4,9 5,9 5,9 h 12 c 0,0 1,0 1,1 0,1 0,3 0,3 h 1 c 0,0 0,-1 0,-3 C 19,8 17,8 17,8 V 4 3 Z M 6,4 H 16 V 8 H 15 V 7 H 7 V 8 H 6 Z m 1,1 v 1 h 8 V 5 Z m -2,5 v 1 h 3 v -1 z m 12,4 v 5 l 3,-2.5 z m -9,2 h 6 v 2 H 8 Z"
    class="ColorScheme-Text"
    />
</svg>

<svg xmlns="http://www.w3.org/2000/svg" viewBox="0 0 22 22">
  <defs id="defs3051">
    <style type="text/css" id="current-color-scheme">
      .ColorScheme-Text {
        color:#232629;
      }
      </style>
  </defs>
 <path 
    style="fill:currentColor;fill-opacity:1;stroke:none" 
	d="M 5 3 L 5 4 L 5 8 L 3 8 L 3 9 L 3 16 L 4 16 L 7 16 L 7 18 L 7 19 L 15 19 L 15 16 L 16 16 L 16 13 L 15 13 L 6 13 L 6 15 L 4 15 L 4 9 L 18 9 L 18 12 L 18 13 L 19 13 L 19 12 L 19 9 L 19 8 L 17 8 L 17 4 L 17 3 L 5 3 z M 6 4 L 16 4 L 16 8 L 15 8 L 15 7 L 7 7 L 7 8 L 6 8 L 6 4 z M 7 5 L 7 6 L 15 6 L 15 5 L 7 5 z M 5 10 L 5 11 L 8 11 L 8 10 L 5 10 z M 17 14 L 17 19 L 20 16.5 L 17 14 z M 8 16 L 14 16 L 14 18 L 8 18 L 8 16 z "
    class="ColorScheme-Text"
    />
</svg>
